X:3753
T:Dancing Slippers
C:Ward Allen
M:4/4
L:1/8
K:A
(3EFG|A2 c2 cABc|d2 [d2 f2] [df]cBA|[G2 B2] [G2 B2] eBGB|A2 ed cAEA|
c2 cB ABcA|d2 [d2 f2] [df]cBA|[G2 B2] [G2 B2] eBGB|A2 c2 A2 (3EFG|
A2 c2 Acec|d2 f2 fedc|B2 BA GEFG|AGAB cAEA|
c2 c2 cABc|d2 [d2 f2] [df]cBA|[G2 B2] [G2 B2] eBGB|A2 c2 A2:|
|:(3efg|a2 ea g2 eg|fgaf edcA|B2 b2 b2 ba|gaba gefg|
a2 gb a2 eg|fe^df e=dcA|B2 gf g2 gf|edcB A2:|
EA|c2 c2 Acec|d2 fg fedc|B2 ba gefg|a2 gb agfe|
c2 c2 cABc|d2 fg fedc|B2 ba gefg|a2 bg a2:|
